X:1
T:Title
%%score { 1 | 2 }
L:1/8
Q:1/4=100
M:3/4
K:D
V:1 treble nm="Grand Piano"
V:2 bass 
V:1
 FF [FA]2 [DF]2 | [CE][CE] [DF]4 | [FA][GB] [FA]2 F2 | FD E4 | FF [DFA]2 [A,DF]2 | %5
w: Ira~D.~Sankey * * *|||||
 [G,DG][DFA] [DGB]4 | [DBd][DGB] [DFA]2 [A,DF]2 | [A,CE][A,EG] [A,DF]4 |] %8
w: |||
V:2
 [D,A,D][D,A,D] [D,D]2 [D,A,]2 | [A,,A,][A,,A,] [D,A,]4 | [D,D][D,D] [D,D]2 [D,A,D]2 | %3
 [D,A,D][F,A,] [A,C]4 | [D,A,D][D,A,D] D,2 =C,2 | B,,A,, G,,4 | G,,B,, D,2 D,2 | A,,A,, D,4 |] %8

